X: 1
T: Scordiness
C: Charlie Sherritt
%D:
R: reel
S: Fiddle Hell Online 2022-4-7 handout for Andreq Beaton workshop
Z: 2022 John Chambers <jc:trillian.mit.edu>
M: 4/4
L: 1/8
K: D
G | F2DF ADFA | dfec dAAd |\
[1,3  B2GB EBGB | (c/d/e) Ac ecA :|\
[2,4 (B/c/d) GB AdFA | GBAG FD D :|
|: g | f2df afdB | Acde fdd \
[1,3 f | e2Be gfed | (c/d/e) dB cAA :|\
[2,4 c | (B/c/d) GB AdFA | GBAG FD D :|
